X: 11560
T: Edgy In Zurich
R: reel
M: 4/4
K: Eminor
EBea agfg|e2ed BedB|EBea agfg|edBA GFED|
EBea agfg|e2ed BedB|EFGE FGAF|GABG ABcA|
EBea agfg|e2ed BedB|EBea agfg|edBA GFED|
EFGE FGAF|GABG ABcA|BcdB cdec|defd efga
|:b3a gede|gaba ged2|b3a gede|gedB ABG2:|

